X:1
T:Title
%%score [ 1 2 3 4 ]
L:1/8
Q:1/4=100
M:2/2
K:G
V:1 treble nm="Soprano"
V:2 treble nm="Alto"
V:3 treble-8 nm="Tenor"
V:4 bass nm="Bass"
V:1
 D4 A3 F | GA B3 A/G/AB | G3 A BGAB | c3 A B3 A/G/ | F4 E4 | z8 | A4 d3 B | cd c3 B A2- | %8
w: Ex- ur- *||||* ge,||ex- ur- *||
 A^G/F/ G2 A4 | z6 A2- | A2 G2 E2 =F2- | F2 E2 CDED | E3 D C2 D2 | E2 E2 EFGE | FDFG A2 A2 | %15
w: * * * * ge,|qua-|* re ob- dor-|* mis Do- * * *|* * * mi-|ne? Ex- ur- * * *|* * * * * ge,|
 E2 EF GEGA | BGAB c4 | c4 z2 A2 | G8 | G2 B2 B2 F2 | A4 A2 E2 | EFGA Bc B2- | B2 AG A4 | %23
w: ex- ur- * * * * *||ge, ex-|ur-|ge, et ne re-|pel- las in|fi- * * * * * *||
 ^G4 z2 A2 | A2 E2 G4 | F2 F2 EFGA | B2 B2 z2 G2- | GABG c3 B | A2 G2 GABG | cB B3 A/G/ A2 | %30
w: nem, et|ne re- pel-|las in fi- * * *|* nem: qua-||* re, qua- * * *||
 B4 z4 | z2 G3 F/E/DF | E4 ^D2 F2- | FF F2 G4 | G2 A2 B3 A | BG c3 B A2- | A^G/F/ G2 A4 | z6 G2- | %38
w: re,|qua- * * * *|* re fa-|* ci- em tu-|am a- ver- *||* * * * tis?|Ob-|
 G2 F2 E4- | E2 ^D2 E4 | z8 | z6 G2- | G2 G2 G2 G2 | =F6 E2 | E8 | D8 | D3 D E2 E2 | E4 D3 E | %48
w: * li- vi-|* sce- ris||tri-|* bu- la- ti-|o- nem|no-|stram,|tri- bu- la- ti-|o- nem _|
 F4 G4 | F8 |][M:2/2]"^Secunda pars" z4 D2 D2- | DEFG A3 G/F/ | EFGA Bc d2- | dc/B/AB c4 | %54
w: _ no-|stram?|Ex- ur-||||
 B4 z2 G2 | GABc d3 c/B/ | AGAB cA c2 | B3 G B2 A2- | A2 ^G2 A2 c2- | cc A2 B3 A | GF E4 A2- | %61
w: ge, ex-|ur- * * * * * *||ge _ _ Do-|* mi- ne, ad-|* iu- va nos, _|_ _ _ ad-|
 AA F2 G4 | z8 | E3 E F4 | G4 z4 | D2 G4 G2 | G4 G4- | G4 z2 D2 | G3 G G4 | F4 E4 | A3 A A4 | G8 | %72
w: * iu- va nos,||ad- iu- va|nos,|et li- be-|ra nos,|_ et|li- be- ra|nos, et|li- be- ra|nos,|
 E4 =F4- | F2 =F2 F4 | E2 c2 B2 A2- | A2 A2 ^G2 G2 | B4 A2 G2- | G2 G2 FE F2 | G2 G2 F2 E2- | %79
w: et li-|* be- ra|nos prot- ter no-|* men tu- um,|pro- pter no-|* men tu- * *|um, pro- pter no-|
 E2 E2 ^D^C D2 | E2 c2 B2 A2- | A2 A2 ^G2 G2 | B4 A2 G2- | G2 G2 FE F2 | G2 G2 F2 E2- | %85
w: * men tu- * *|um, pro- pter no-|* men tu- um,|pro- pter no-|* men tu- * *|um, pro- pter no-|
 E2 E2 ^D^C D2 | E2 c2 B2 A2- | A2 A2 ^GF G2 | A2 F4 E2 | D2 F2 E4 | F8 |] %91
w: * men tu- * *|um, pro- pter no-|* men tu- * *|um, pro- pter|no- men tu-|um.|
V:2
 z8 | G,4 D3 B, | CDEC DEFD | E3 D/C/ B,C D2 | D4 z4 | D4 G3 E | FG F3 E D2 | E8- | E4 E4 | %9
w: |Ex- ur- *|||ge,|ex- ur- *||ge,|_ qua-|
 C2 B,2 C2 A,B, | CD E2 z2 D2- | D2 C2 A,2 C2- | C2 G,2 A,3 B, | C2 A,2 G,4 | z4 A,2 A,B, | %15
w: re ob- dor- mis, _|_ _ _ qua-|* re ob- dor-|* mis Do- *|* mi- ne?|Ex- ur- *|
 CA,CD E3 D/C/ | B,2 A,2 z4 | A,2 E3 D/C/ D2 | E4 z2 E2 | E2 B,2 D4 | D2 A,2 A,B,CA, | CD E2 D4 | %22
w: |* ge,|ex- ur- * * *|ge, et|ne re- pel-|las in fi- * * *|* * * nem,|
 G2 =F4 D2 | E8 | C2 C2 B,2 G,2 | B,2 A,B, CD E2- | E2 D2 E4- | E4 z2 C2- | CDEC EF G2- | %29
w: et ne re-|pel-|las in fi- nem,|in fi- * * * *|* * nem:|_ qua-||
 GF/E/DF E4 | D4 z2 C2- | CB,/A,/ G,3 A, B,2- | B,A,/G,/ A,2 B,2 D2- | DD D2 E4- | E2 A,2 z2 D2 | %35
w: |re, qua-||* * * * re fa-|* ci- em tu-|* am a-|
 DB, E3 D/C/ D2 | E4 z2 E2- | E2 E2 D2 ^C2 | D2 D4 C2 | B,2 A,2 B,4 | D6 D2 | D2 D2 C4- | %42
w: ver- * * * * *|tis, ob-|* li- vi- sce-|ris, ob- li-|vi- sce- ris|tri- bu-|la- ti- o-|
 C2 B,2 B,4 | D4 z4 | C2 C2 C2 C2 | B,2 A,2 z2 A,2- | A,2 A,2 A,2 A,2 | G,2 A,2 B,3 C | %48
w: * nem no-|stram,|tri- bu- la- ti-|o- nem, tri-|* bu- la- ti-|o- nem no- *|
 DE D3 ^C/B,/ C2 | D8 |][M:2/2] G,4 G,3 A, | B,C D3 C/B,/A,B, | CDEF GF/E/DE | F4 EDEF | %54
w: |stram?|Ex- ur- *|||* ge, _ _ _|
 G3 F/E/ D2 D2 | EFGE F4- | F4 E4 | G6 E2 | E4 E3 E | C2 D3 C B,2- | B,2 C4 C2 | D4 E4 | %62
w: _ _ _ _ ex-|ur- * * * *|* ge|Do- mi-|ne, ad- iu-|va nos, _ _|_ ad- iu-|va nos,|
 z4 B,3 B, | C4 D4 | G,3 G, A,2 B,2- | B,A,G,F, E,2 E2 | E3 E E4 | D2 G,2 D4- | D2 D2 D4 | %69
w: ad- iu-|va nos,|ad- iu- va nos,|_ _ _ _ _ et|li- be- ra|nos, et li-|* be- ra|
 D2 D2 C4- | C2 C2 C4 | B,2 B,2 E3 E | ^C4 D2 A,2 | D3 D D4 | ^C2 E4 E2 | =F2 D2 E4 | D2 D4 D2 | %77
w: nos, et li-|* be- ra|nos, et li- be-|ra nos, et|li- be- ra|nos pro- pter|no- men tu-|um, pro- pteer|
 E2 ^C2 D4 | B,2 B,4 B,2 | C2 A,2 B,4 | ^C2 E4 E2 | =F2 D2 E4 | D2 D4 D2 | E2 ^C2 D4 | %84
w: no- men tu-|um, pro- pter|no- men tu-|um, pro- pter|no- men tu-|um, pro- pter|no- men tu-|
 B,2 B,4 B,2 | C2 A,2 B,4 | ^C2 E4 E2 | =F2 D2 E4 | ^C2 D3 D E2 | F2 D3 ^C/B,/ C2 | D8 |] %91
w: um, pro- pter|no- men tu-|um, pro- pter|no- men tu-|um, pro- pter no-|men tu- * * *|um.|
V:3
 z8 | z8 | z6 D2 | A3 F GA B2- | BA/G/AB G3 A | Bc d3 ccB/c/ | d3 c B4 | A2 A2 c4 | B4 A4 | %9
w: ||Ex-|ur- * * * *||||ge, ex- ur-|* ge,|
 z2 e4 c2 | A2 c4 A2 | A3 A E2 A2 | G2 E2 =F4 | C2 c4 c2 | d8 | z4 B2 Bc | dBcd e4 | e2 A2 cBAB | %18
w: qua- re|ob- dor- mis|Do- mi- ne, qua-|re ob- dor-|mis Do- mi-|ne?|Ex- ur- *||ge, ex- ur- * * *|
 cd e2 B4- | B8 | z6 A2 | A2 E2 GABc | d4 c2 A2 | B4 c4 | e4 e2 B2 | d4 G2 E2 | F4 E2 c2 | B4 A4 | %28
w: * * * ge|_|et|ne re- pel- * * *|* las in|fi- nem,|et ne re-|pel- las in|fi- nem, in|fi- nem:|
 z6 e2- | ed/c/Bd c4 | B2 d3 c/B/ A2 | e3 d/c/ B4 | E4 F4 | B3 B B4 | c4 B4- | B2 G2 A4 | %36
w: qua-||re, qua- * * *|re, _ _ _|qua- re|fa- ci- em|tu- am|_ a- ver-|
 B4 A2 c2- | c2 B2 A2 G2 | A4 A3 A | G2 F2 E4 | B3 B B2 B2 | A6 G2 | G8 | A2 A4 A2 | A2 A2 G4- | %45
w: * tis, ob-|* li- vi- sce-|ris, ob- li-|vi- sce- ris|tri- bu- la- ti-|o- nem|no-|stram, tri- bu-|la- ti- o-|
 G2 =F2 F4- | F4 E2 E2- | E2 E2 G2 F2 | B2 B2 G4 | A8 |][M:2/2] z8 | z8 | z8 | A2 A3 Bcd | %54
w: * nem no-|* stram, tri-|* bu- la- ti-|o- nem no-|stram?||||Ex- ur- * * *|
 e3 d/c/ BA B2- | BA G2 A2 A2 | d4 c3 d | e2 d3 ecB/A/ | B2 B2 A4 | z8 | z4 A3 A | F2 B3 ABc | %62
w: |* * * ge, ex-|ur- ge _|_ Do- * * * *|* mi- ne,||ad- iu-|va nos _ _ _|
 dcBA G4- | G4 z2 B2- | BB ^c2 d4 | z4 G2 c2- | c2 c2 c4 | B2 E2 B4- | B2 B2 B4 | A4 z4 | %70
w: _ _ _ _ _|* ad-|* iu- va nos,|et li-|* be- ra|nos, et li-|* be- ra|nos,|
 A2 e4 e2 | e4 B2 E2 | A6 A2 | A4 A4- | A4 B2 ^c2 | d2 A2 B4- | B2 G2 A2 B2 | c2 G2 A4 | %78
w: et li- be-|ra nos, et|li- be-|ra nos|_ pro- pter|o- men tu-|* um, pro- pter|no- men tu-|
 G4 B2 ^G2 | A2 E2 F4 | A4 B2 ^c2 | d2 A2 B4- | B2 G2 A2 B2 | c2 G2 A4 | G4 B2 ^G2 | A2 E2 F4 | %86
w: um, pro- pter|no- men tu-|um, pro- pter|no- men tu-|* um, pro- pter|no- men tu-|um, pro- pter|no- men tu-|
 A4 B2 ^c2 | d2 A2 B4 | A8- | A8- | A8 |] %91
w: um, pro- pter|no- men tu-|um.|_||
V:4
 z8 | z8 | z8 | z4 G,,4 | D,3 B,, C,D,E,F, | G,3 F, E,4 | D,4 z4 | A,,4 A,4 | E,4 z2 A,2- | %9
w: |||Ex-|ur- * * * * *||ge,|ex- ur-|ge, qua-|
 A,2 G,2 E,2 =F,2- | F,2 C,4 D,2- | D,2 A,,2 A,,3 B,, | C,4 z4 | A,,2 A,,B,, C,D, E,2 | %14
w: * re ob- dor-|* mis Do-|* mi- ne? _|_|Ex- ur- * * * *|
 D,2 D,2 D,E,F,D, | A,2 A,G,/F,/ E,4 | z4 A,2 A,B, | CA,CB, A,G, =F,2 | E,8- | E,4 z4 | z8 | %21
w: ge, ex- ur- * * *|* ge, _ _ _|ex- ur- *||ge,|_||
 z6 G,2 | G,2 D,2 =F,4 | E,2 E,2 A,4 | A,4 E,2 E,2 | B,,C, D,2 C,4 | B,,2 B,,2 C,3 D, | E,4 A,,4 | %28
w: et-|ne re pel-|las in fi-|nem, et ne|re- * * pel-|las in fi- *|* nem:|
 z8 | z8 | G,3 F,/E,/ D,E, =F,2 | C,2 E,3 D,/C,/B,,D, | C,4 B,,4- | B,,4 E,3 E, | E,2 F,2 G,4- | %35
w: ||qua- * * * * *|re, qua- * * * *|* re|_ fa- ci-|em tu- am|
 G,2 C,2 =F,4 | E,4 A,,2 A,2- | A,2 G,2 F,2 E,2 | D,4 z4 | z4 G,4- | G,2 G,2 G,2 G,2 | =F,6 E,2 | %42
w: _ a- ver-|* tis, ob-|* li- vi- sce-|ris|tri-|* bu- la- ti-|o- nem|
 E,8 | D,6 C,B,, | A,,3 B,, C,4 | z2 D,4 D,2 | D,2 D,2 C,4- | C,4 B,,4- | B,,4 E,4 | D,8 |] %50
w: no-|stram, _ _|_ _ _|tri- bu-|la- ti- o-|* nem|_ no-|stram?|
[M:2/2] z8 | z8 | z6 D,2 | D,E,F,G, A,4 | E,2 E,2 G,3 F, | E,4 D,2 D,2 | D,E,F,G, A,4 | %57
w: ||Ex-|ur- * * * *|ge, ex- ur- *|* ge, ex-|ur- * * * *|
 E,2 G,4 A,2 | E,4 z2 A,2- | A,A, F,2 G,3 F, | E,D,C,B,, A,,4 | z4 E,3 E, | F,2 G,2 E,3 E, | %63
w: ge Do- mi-|ne, ad-|* iu- va nos, _|_ _ _ _ _|ad- iu-|va nos, ad- iu-|
 C,4 B,,4 | E,3 E, F,2 G,2- | G,F,E,D, C,4- | C,4 z2 C,2 | G,6 G,2 | G,8 | D,2 D,2 A,4- | %70
w: va nos,|ad- iu- va nos,|_ _ _ _ _|* et|li- be-|ra|nos, et li-|
 A,2 A,2 A,4 | E,8 | z2 A,,2 D,4- | D,2 D,2 D,4 | A,,2 A,2 ^G,2 A,2 | D,2 =F,2 E,4 | G,4 F,2 G,2 | %77
w: * be- ra|nos|et li-|* be- ra|nos pro- pter no-|men tu- um,|pro- pter no-|
 C,2 E,2 D,4 | E,4 ^D,2 E,2 | A,,B,, C,2 B,,A,, B,,2 | A,,2 A,2 ^G,2 A,2 | D,2 =F,2 E,4 | %82
w: men tu- um,|pro- pter no-|men _ _ tu- * *|um, pro- pter no-|men tu- um,|
 G,4 F,2 G,2 | C,2 E,2 D,4 | E,4 ^D,2 E,2 | A,,B,, C,2 B,,A,, B,,2 | A,,2 A,2 ^G,2 A,2 | %87
w: pro- pter no-|men tu- um,|pro- pter no-|men _ _ tu- * *|um, pro- pter no-|
 D,E, =F,2 E,D, E,2 | A,,2 D,4 ^C,2 | D,2 D,2 A,,4 | D,8 |] %91
w: men _ _ tu- * *|um, pro- pter|no- men tu-|um.|

